**kern	**silbe
*ICvox	*
*B-:	*
*M4/4	*
*clefG2	*
r;	.
=1	=1
1r	.
=2	=2
1r	.
=3	=3
1r	.
=4	=4
1r	.
=5	=5
1r	.
=6	=6
1r	.
=7	=7
1r	.
=8	=8
1r	.
=9	=9
1r	.
=10	=10
2r	.
4f	des-
4g	-ert
=11	=11
4b-	lov-
8b-	-ing
8[cc	in
8cc]	_
4dd	your
8[cc	eyes
=12	=12
4.cc]	_
8dd	all
4cc	_
8b-	the
8b-	way
=13	=13
8cc	_
8[b-	_
2.b-]	_
=14	=14
4r	.
8r	.
8[f	if
8f]	_
8g	I
4f	_
=15	=15
4b-	lis-
8b-	-ten
8[cc	to
8cc]	_
4dd	your
8[cc	lies
=16	=16
4.cc]	_
8dd	would
4cc	_
4b-	you
=17	=17
1b-	say
=18	=18
4r	.
8r	.
8[dd	I'm
4dd]	_
4b-	a
=19	=19
1b-	man
=20	=20
4r	.
8b-	with
8[a	out
4a]	_
4b-	con
=21	=21
4.cc	vic
8cc	tion
2dd	_
=22	=22
4r	.
8r	.
8[dd	I'm
4dd]	_
4b-	a
=23	=23
4cc	man
2.b-	_
=24	=24
4r	.
8b-	who
8[a	does-
4a]	_
4b-	-n't
=25	=25
1cc	know
=26	=26
4r	.
8r	.
4.dd	how
4cc	to
=27	=27
4cc	sell
2.b-	_
=28	=28
4r	.
8b-	a
4.a	con-
4b-	-tra-
=29	=29
4.cc	-dic-
8cc	-tion
2dd	_
=30	=30
4r	.
8dd	you
4.cc	come
4b-	and
=31	=31
1b-	go
=32	=32
4r	.
8dd	you
4.cc	come
4b-	and
=33	=33
1b-	go
=34	=34
4a	_
2r	.
4r	.
=35	=35
8dd	kar-
8dd	-ma
8dd	kar-
8dd	-ma
8dd	kar-
8dd	-ma
8dd	kar-
8dd	-ma
=36	=36
8cc	kar-
8cc	-ma
8cc	cha-
8cc	-me-
4dd	_
8cc	-le-
8b-	_
=37	=37
1b-	-on
=38	=38
4r	.
8b-	you
4.a	come
4b-	and
=39	=39
1cc	go
=40	=40
4r	.
8dd	you
8dd	come-
4cc	_
4b-	-and
=41	=41
2[b-	go-
8b-]	_
8cc	_
4dd	_
=42	=42
2cc	_
2r	.
=43	=43
8dd	-lov-
8dd	-ing
8dd	would
8dd	be
8dd	ea-
8dd	-sy
8dd	if
8dd	your
=44	=44
8cc	co-
8cc	-lors
8cc	were
8cc	like
4dd	_
8cc	my
8b-	_
=45	=45
1b-	dreams
=46	=46
4r	.
4b-	red
4a	gold
4b-	and
=47	=47
1cc	green
=48	=48
4r	.
4dd	red
4cc	gold
4b-	and
=49	=49
1b-	green
=50	=50
2r	.
8f	did-
4.g	-n't
=51	=51
4b-	hear
8b-	your
8[cc	wick-
8cc]	_
4dd	-ed
8[cc	words
=52	=52
4.cc]	_
8dd	ev-
4cc	_
8b-	-ry
8b-	day
=53	=53
8cc	_
8[b-	_
2.b-]	_
=54	=54
4r	.
8r	.
8[f	and
8f]	_
8g	you
4f	_
=55	=55
4b-	used
8b-	to
8[cc	be
8cc]	_
4dd	so
8[cc	sweet
=56	=56
4.cc]	_
8dd	I
4cc	heard
4b-	you
=57	=57
1b-	say
=58	=58
4r	.
8r	.
8[dd	that
4dd]	_
4b-	my
=59	=59
1b-	love
=60	=60
4r	.
8b-	was
8[a	an
4a]	_
4b-	ad-
=61	=61
4.cc	-dic-
8cc	-tion
2dd	_
=62	=62
4r	.
8r	.
8[dd	when
4dd]	_
4b-	we
=63	=63
4cc	cling
2.b-	_
=64	=64
4r	.
8b-	our
8[a	love
4a]	_
4b-	is
=65	=65
1cc	strong
=66	=66
4r	.
8r	.
4.dd	when
4cc	you
=67	=67
4cc	go
2.b-	_
=68	=68
4r	.
8b-	you're
4.a	gone
4b-	for-
=69	=69
4.cc	-e-
8cc	-ver
2dd	_
=70	=70
4r	.
8dd	you
4.cc	string
4b-	a-
=71	=71
1b-	-long
=72	=72
4r	.
8dd	you
4.cc	string
4b-	a-
=73	=73
1b-	-long
=74	=74
1r	.
=75	=75
8dd	kar-
8dd	-ma
8dd	kar-
8dd	-ma
8dd	kar-
8dd	-ma
8dd	kar-
8dd	-ma
=76	=76
8cc	kar-
8cc	-ma
8cc	cha-
8cc	-me-
4dd	_
8cc	-le-
8b-	_
=77	=77
1b-	-on
=78	=78
4r	.
8b-	you
4.a	come
4b-	and
=79	=79
1cc	go
=80	=80
4r	.
8dd	you
8dd	come
4cc	_
4b-	and
=81	=81
2[b-	go
8b-]	_
8cc	_
4dd	_
=82	=82
2cc	_
2r	.
=83	=83
8dd	lov-
8dd	-ing
8dd	would
8dd	be
8dd	ea-
8dd	-sy
8dd	if
8dd	your
=84	=84
8cc	col-
8cc	-ors
8cc	were
8cc	like
4dd	_
8cc	my
8b-	_
=85	=85
1b-	dream
=86	=86
4r	.
4b-	red
4a	gold
4b-	and
=87	=87
1cc	green
=88	=88
4r	.
4dd	red
4cc	gold
4b-	and
=89	=89
2[b-	green
8b-]	_
8cc	_
4dd	_
=90	=90
2cc	_
2r	.
=91	=91
4ee-	ev-
8ee-	-ry
8ee-	_
2[ff	day
=92	=92
8ff]	_
4.ee-	is
4dd	like
8ee-	sur-
8[dd	-vi-
=93	=93
4dd]	_
2.[cc	-val
=94	=94
4cc]	_
2r	.
4r	.
=95	=95
8ee-	you're
4ee-	my
8ee-	lov-
4ff	_
4[ee-	-er
=96	=96
4.ee-]	_
4.dd	not
4ee-	my
=97	=97
1dd	ri-
=98	=98
2.dd	-val
4r	.
=99	=99
4ee-	ev-
8ee-	-ry
8ee-	_
2[ff	day
=100	=100
8ff]	_
4.ee-	is
4dd	like
8ee-	sur-
8[dd	-vi-
=101	=101
4dd]	_
2.[cc	-val
=102	=102
4cc]	_
2r	.
4r	.
=103	=103
8ee-	you're
4ee-	my
8ee-	lov-
4ff	_
4[ee-	-er
=104	=104
4.ee-]	_
4.dd	not
4ee-	my
=105	=105
1dd	ri-
=106	=106
1dd	-val
=107	=107
1r	.
=108	=108
1r	.
=109	=109
1r	.
=110	=110
1r	.
=111	=111
1r	.
=112	=112
1r	.
=113	=113
1r	.
=114	=114
4r	.
8r	.
8[dd	I'm
4dd]	_
4b-	a
=115	=115
1b-	man
=116	=116
4r	.
8b-	with-
8[a	-out
4a]	_
4b-	con-
=117	=117
4.cc	-vic-
8cc	-tion
2dd	_
=118	=118
4r	.
8r	.
8[dd	I'm
4dd]	_
4b-	a
=119	=119
4cc	man
2.b-	_
=120	=120
4r	.
8b-	who
8[a	does-
4a]	_
4b-	-n't
=121	=121
1cc	know
=122	=122
4r	.
8r	.
4.dd	how
4cc	to
=123	=123
4cc	sell
2.b-	_
=124	=124
4r	.
8b-	a
4.a	con-
4b-	-tra-
=125	=125
4.cc	-dic-
8cc	-tion
2dd	_
=126	=126
4r	.
8dd	you
4.cc	come
4b-	and
=127	=127
1b-	go
=128	=128
4r	.
8dd	you
4.cc	come
4b-	and
=129	=129
1b-	go
=130	=130
4a	_
2r	.
4r	.
=131	=131
8dd	kar-
8dd	-ma
8dd	kar-
8dd	-ma
8dd	kar-
8dd	-ma
8dd	kar-
8dd	-ma
=132	=132
8cc	kar-
8cc	-ma
8cc	cha-
8cc	-me-
4dd	_
8cc	-le-
8b-	_
=133	=133
1b-	-on
=134	=134
4r	.
8b-	you
4.a	come
4b-	and
=135	=135
1cc	go
=136	=136
4r	.
8dd	you
8dd	come
4cc	_
4b-	and
=137	=137
2[b-	go
8b-]	_
8cc	_
4dd	_
=138	=138
2cc	_
2r	.
=139	=139
8dd	lov-
8dd	-ing
8dd	would
8dd	be
8dd	ea-
8dd	-sy
8dd	if
8dd	your
=140	=140
8cc	col-
8cc	-ers
8cc	were
8cc	like
4dd	_
8cc	my
8b-	_
=141	=141
1b-	dreams
=142	=142
4r	.
4b-	red
4a	gold
4b-	and
=143	=143
1cc	green
=144	=144
4r	.
4dd	red
4cc	gold
4b-	and
=145	=145
1b-	green
=146	=146
1r	.
=147	=147
8dd	kar-
8dd	-ma
8dd	kar-
8dd	-ma
8dd	kar-
8dd	-ma
8dd	kar-
8dd	-ma
=148	=148
8cc	kar-
8cc	-ma
8cc	cha-
8cc	-me-
4dd	_
8cc	-le-
8b-	_
=149	=149
1b-	-on
=150	=150
4r	.
8b-	you
4.a	come
4b-	and
=151	=151
1cc	go
=152	=152
4r	.
8dd	you
8dd	come
4cc	_
4b-	and
=153	=153
2[b-	go
8b-]	_
8cc	_
4dd	_
=154	=154
2cc	_
2r	.
=155	=155
8dd	lov-
8dd	-ing
8dd	would
8dd	be
8dd	ea-
8dd	-sy
8dd	if
8dd	your
=156	=156
8cc	col-
8cc	-ors
8cc	were
8cc	like
4dd	_
8cc	my
8b-	_
=157	=157
1b-	dreams
=158	=158
4r	.
4b-	red
4a	gold
4b-	and
=159	=159
1cc	green
=160	=160
4r	.
4dd	red
4cc	gold
4b-	and
=161	=161
1b-	green
=162	=162
1r	.
=163	=163
8dd	kar-
8dd	-ma
8dd	kar-
8dd	-ma
8dd	kar-
8dd	-ma
8dd	kar-
8dd	-ma
=164	=164
8cc	kar-
8cc	-ma
8cc	cha-
8cc	-me-
4dd	_
8cc	-le-
8b-	_
=165	=165
1b-	-on
=166	=166
4r	.
8b-	you
4.a	come
4b-	and
=167	=167
1cc	go
=168	=168
4r	.
8dd	you
8dd	come
4cc	_
4b-	and
=169	=169
2[b-	go
8b-]	_
8cc	_
4dd	_
=170	=170
2cc	_
2r	.
=171	=171
8dd	lov-
8dd	-ing
8dd	would
8dd	be
8dd	ea-
8dd	-sy
8dd	if
8dd	your
=172	=172
8cc	col-
8cc	-ors
8cc	were
8cc	like
4dd	_
8cc	my
8b-	_
=173	=173
1b-	dreams
=174	=174
4r	.
4b-	red
4a	gold
4b-	and
=175	=175
1cc	green
=176	=176
4r	.
4dd	red
4cc	gold
4b-	and
=177	=177
1b-	green
=178	=178
1r	.
=179	=179
8dd	kar-
8dd	-ma
8dd	kar-
8dd	-ma
8dd	kar-
8dd	-ma
8dd	kar-
8dd	-ma
r;	.
r;	.
*-	*-
!!!ENC: Nathaniel Condit-Schultz